layouts/icon-pack/weapon_scythe.svg

<?xml version="1.0" encoding="UTF-8"?>
<svg width="1200pt" height="1200pt" version="1.1" viewBox="0 0 1200 1200" xmlns="http://www.w3.org/2000/svg">
 <g fill="#fff">
  <path d="m964.73 611.39c1.2461 2.5977 4.0625 4.0586 6.9062 3.5781 2.8398-0.47656 5.0234-2.7773 5.3516-5.6406 2.1016-25.246 1.6289-50.645-1.4062-75.797-5.1758-43.402-23.309-84.238-52.031-117.19-77.602-89.672-164.06-130.69-222.98-149.3-13.316-4.2617-27.812-2.75-39.961 4.1719-12.277 6.7969-21.023 18.559-24 32.273-1.0078 4.6875-1.9688 9.1172-2.8828 13.453-1.0977 5.6094-0.03125 11.43 2.9805 16.289s7.75 8.3984 13.262 9.9141c170.04 49.594 263.48 159.98 314.77 268.24z"/>
  <path d="m964.9 217.48c-39.922-37.922-89.234-64.516-142.85-77.039-95.484-22.664-217.97-55.102-274.57-70.312-7.5391-2.0938-15.617-0.74609-22.07 3.6797-6.4492 4.4258-10.613 11.48-11.375 19.266-14.062 165.45-79.219 320.13-122.67 407.34-20.426 41.039-46.812 78.832-78.305 112.15-72.469 76.641-135.94 163.41-169.78 211.78-23.262 33.113-40.641 69.992-51.375 109.01-17.789 65.625-21.961 131.25-22.758 167.79-0.089844 7.8906 3.0039 15.488 8.5859 21.07 5.5781 5.582 13.172 8.6836 21.062 8.6016h25.898c8.1875 0.082031 16.031-3.2695 21.637-9.2344 5.6055-5.9688 8.4609-14.008 7.8711-22.172-14.32-180.8 120.89-317.98 203.11-383.91 43.145-34.5 78.953-77.273 105.33-125.81l67.055-123.73c10.125-18.668 18.883-38.047 26.203-57.984l17.719-48.211c4.207-11.438 7.4844-23.191 9.7969-35.156 1.8047-9.375 3.9375-19.875 6.3984-31.102 5.9727-26.695 23.016-49.594 46.875-62.977 23.941-13.461 52.387-16.422 78.586-8.1797 64.828 20.484 159.91 65.484 244.8 163.59 34.824 39.98 56.805 89.523 63.07 142.17 5.1328 43.688 5.4375 101.46-13.125 159.84-4.9648 15.578-5.582 32.215-1.7812 48.117 8.168 34.027 13.793 68.613 16.828 103.48 1.1484 13.547 19.5 17.344 26.297 5.5078 176.55-307.29 18.82-526.78-86.461-627.59z"/>
 </g>
</svg>

<?xml version="1.0" encoding="UTF-8" standalone="no"?>
<!DOCTYPE svg PUBLIC "-//W3C//DTD SVG 1.1//EN" "http://www.w3.org/Graphics/SVG/1.1/DTD/svg11.dtd">
<svg width="100%" height="100%" viewBox="0 0 512 512" version="1.1" xmlns="http://www.w3.org/2000/svg" xmlns:xlink="http://www.w3.org/1999/xlink" xml:space="preserve" xmlns:serif="http://www.serif.com/" style="fill-rule:evenodd;clip-rule:evenodd;stroke-linejoin:round;stroke-miterlimit:2;">
    <g transform="matrix(1,0,0,1,-69.1451,-69.1631)">
        <g transform="matrix(0.482243,0,0,0.482243,35.8003,35.8097)">
            <path d="M964.73,611.39C965.976,613.988 968.793,615.449 971.636,614.968C974.476,614.492 976.66,612.191 976.988,609.328C979.089,584.082 978.617,558.683 975.582,533.531C970.406,490.128 952.273,449.292 923.551,416.34C845.949,326.669 759.491,285.65 700.571,267.04C687.255,262.779 672.759,264.29 660.61,271.212C648.333,278.009 639.587,289.771 636.61,303.485C635.602,308.173 634.641,312.603 633.727,316.938C632.629,322.548 633.696,328.368 636.707,333.227C639.719,338.086 644.457,341.626 649.969,343.141C820.009,392.735 913.449,503.121 964.739,611.382L964.73,611.39Z" style="fill:white;fill-rule:nonzero;"/>
            <path d="M964.9,217.48C924.978,179.558 875.666,152.964 822.05,140.441C726.566,117.777 604.08,85.339 547.48,70.129C539.941,68.035 531.863,69.383 525.41,73.809C518.961,78.234 514.797,85.289 514.035,93.075C499.973,258.525 434.816,413.205 391.365,500.415C370.939,541.454 344.553,579.247 313.06,612.565C240.591,689.206 177.12,775.975 143.28,824.345C120.018,857.458 102.639,894.337 91.905,933.355C74.116,998.98 69.944,1064.61 69.147,1101.14C69.057,1109.04 72.151,1116.63 77.733,1122.21C83.311,1127.8 90.905,1130.9 98.795,1130.82L124.693,1130.82C132.88,1130.9 140.724,1127.55 146.33,1121.58C151.935,1115.61 154.791,1107.57 154.201,1099.41C139.881,918.61 275.091,781.43 357.311,715.5C400.456,681 436.264,638.227 462.641,589.69L529.696,465.96C539.821,447.292 548.579,427.913 555.899,407.976L573.618,359.765C577.825,348.327 581.102,336.574 583.415,324.609C585.22,315.234 587.352,304.734 589.813,293.507C595.786,266.812 612.829,243.913 636.688,230.53C660.629,217.069 689.075,214.108 715.274,222.35C780.102,242.834 875.184,287.834 960.074,385.94C994.898,425.92 1016.88,475.463 1023.14,528.11C1028.28,571.798 1028.58,629.57 1010.02,687.95C1005.06,703.528 1004.44,720.165 1008.24,736.067C1016.41,770.094 1022.03,804.68 1025.07,839.547C1026.21,853.094 1044.57,856.891 1051.36,845.055C1227.91,537.765 1070.18,318.275 964.902,217.465L964.9,217.48Z" style="fill:white;fill-rule:nonzero;"/>
        </g>
    </g>
</svg>
